X: 4
T:The Maid Behind The Bar
% Nottingham Music Database
S:Fiddler's Fakebook, via PR
M:4/4
L:1/4
K:D
"D"[FA][A/2d/2]-[B/2d/2] [A/2d/2][F/2A/2][E/2G/2][D/2F/2]|[F/2A/2][A/2d/2][A/2d/2][B/2d/2] [A/2d/2][B/2d/2][d/2f/2][e/2g/2]|\
"Bm"[f/2b/2][B/2d/2][B/2d/2][A/2c/2] [B/2d/2][c/2e/2][d/2f/2][e/2g/2]|"Bm"[f/2b/2][B/2d/2][B/2d/2][A/2c/2] "A"[B/2d/2][c/2e/2][d/2f/2][A/2c/2]|
"D"[F/2A/2][A/2d/2][A/2d/2][B/2d/2] [A/2d/2][F/2A/2][E/2G/2][D/2F/2]|"D"[FA][A/2d/2][B/2d/2] [A/2d/2][B/2d/2][d/2f/2][e/2g/2]|\
"Bm"[f/2b/2][B/2d/2][B/2d/2][A/2c/2] "G"[B/2d/2][c/2e/2][d/2g/2][B/2d/2]|"A"[A/2c/2][F/2A/2][E/2A/2][F/2A/2] "D"[D2F2]::
"D"[f/2a/2][ad'][b/2d'/2] [a/2d'/2][f/2a/2][d/2f/2][e/2g/2]|[f/2a/2][d/2f/2][a/2d'/2][d/2f/2] [b/2d'/2][d/2f/2][a/2d'/2][d/2f/2]|\
"Em"[e/2g/2][f/2a/2][g/2b/2][a/2c'/2] [b/2e'/2][g/2b/2][e/2g/2][f/2a/2]|(3"A"[g/2b/2][f/2a/2][e/2a/2][b/2d'/2][e/2a/2] [g/2b/2][f/2a/2][e/2a/2][g/2b/2]|
"D"[f/2a/2][g/2b/2][a/2d'/2][f/2a/2] [b/2d'/2][f/2a/2][a/2d'/2][f/2a/2]|[d/2f/2][e/2g/2][f/2a/2][d/2f/2] [e/2g/2][f/2a/2][d/2f/2][e/2g/2]|\
"Bm"[f/2b/2][B/2d/2][B/2d/2][A/2c/2] "G"[B/2d/2][c/2e/2][d/2g/2][B/2d/2]|"A"[A/2c/2][F/2A/2][E/2A/2][F/2A/2] "D"[D2F2]:|


